X:1
T:Dunque Clorida
T:Dunque Clorida
T:Gio.Girolamo Kapsperger
C:Gio.Girolamo Kapsperger
%%score [ 1 2 ] { 3 | 4 }
L:1/8
Q:1/4=120
M:4/4
K:F
V:1 treble nm="Soprano 1" snm="S 1"
V:2 treble nm="Soprano 2" snm="S 2"
V:3 treble nm="BC" snm="BC"
V:4 bass 
V:1
 B2 c2 d2 dd | d3 f _e2 d2 | c4 c3 B | c>d _e>d cB A>G | A2 AA z AAA | A3 =B G4 | G2 AB c2 dc | %7
w: Dun- que Clo- ri- da|mia per que- sti|pra- ti, piu|non ve- drem la tua bel- ta ri-|splen- de- re, e quei be-|gl'oc- chi ma-|ti, al- tro se- no'al- tro|
w: Deh mia Clo- ri- da|non par- tir an-|co- ra, par-|go- let- t'a- mo- ro- sa'e- trop- po|ri- gi- da, sen- t'il duol|ch'e m'ac- co-|ra, se non sei vie piu|
w: Deh mi- ra co- me'al|suon di rau- ca|li- ra, ti|chia- m'il tuo fe- del af- flit- to'e|de- bi- le, o- di co-|me so- spi-|ra, di que- sto ri- vo'il|
w: Ma tu pie- ghi cru-|del' or- rec- chie'al|ron- de, ne|par ques' t'oc- chi mi- ri'un fon- te|pio- ve- re, ma se del|pian- to l'on-|de, non ti puo bel- la|
 B2- cB A3 G | A3 G G4 :: f2 ff _e4 | d3 d _e>d cB | c2 cc c2 c=B | c4 c3 d | _edcB A3 A | G8 :| %15
w: cor _ do- vran- no'ac-|cen- de- re.|Ahi ch'a pen- sar-|vi i sen- t'or- nai ri-|sol- ve- re l'a- ni- ma'in|ge- lo, e'l|cor in fred- da pol- ve-|re.|
w: che _ sco- gli- o|fri- gi- da.|De fer- ma'il pie-|de in que- sta ri- va|flo- ri- da mos- s'a pie-|ta- de,- o|mia sel- vag- gia Clo- ri-|da.|
w: mor- * mo- rar' si|fle- bi- le.|Ar- re- sta'i pas-|si'ah- non fug- gir a- spet-|ta- mi che per- du- ta|bel- ta, vie|piu sa- et- * ta- *|mi.|
w: fe- * ra'og- gi com-|mo- ve- re.|L'al- ma ve- dra-|i che qui vo- le- sti'uc-|ci- de- re se stes- s'al|fin, _ dal|suo mor- ral di- ri- de-|re.|
V:2
 G2 A2 B2 BB | B3 d c2 B2 | A4 A3 G | A>B c>B AG F>E | ^F2 FF z FFF | ^F3 G E4 | E2 FG A2 BA | %7
w: Dun- qur Clo- ri- da|mia per que- sti|pra- ti, piu|non ve- drem la tua bel- ta ri-|splen- de- re, e quei be-|gl'oc- chi ma-|ti, al- tro se- no'al- tro|
w: Deh mia Clo- ri- da|non par- tir an-|co- ra, par-|go- let- t'a- mo- ro- sa'e trop- po|ri- gi- da, sen- t'il duol|ch'e m'ac- co-|ra, se non sei vie piu|
w: Deh mi- ra co- me'al|suon di rau- ca|li- ra, ti|chia- m'il tuo fe- del af- flit- to'e|de- bi- le, o- di co-|me so- spi-|ra, di que- sto ri- vo'il|
w: Ma tu pie- ghi cru-|del' or- rec- chie'al|ron- de, ne|par ques' t'oc- chi mi- n'in fon- te|pio- ve- re, ma se del|pian- to l'on-|de, non ti puo bel- la|
 G2- AG ^F3 E | ^F3 G G4 :: d2 dd d2 c2 | B3 B c>B AG | A2 AA A2 GF | E4 E3 =B | cBAG G3 ^F | G8 :| %15
w: cor _ do- vran- no'ac-|cen- de- re.|Ahi ch'a pen- sar- *|vi i sen- t'or- nai ri|sol- ve- re l'a- ni- ma'in|ge- lo, e'l|cor in fred- da pol- ve-|re.|
w: che _ so- gli- o|fri- gi- da.|De fer- ma'il pie _|de in que- sta ri- va|flo- ri- da mos- s'a pie-|ta- de, o|mia sel- vag- gia Clo- ri-|da.|
w: mor _ mo- rar' si|fle- bi- le.|Ar- re- sta'i pas- *|si'ah non fug- gir a- spet-|ta- mi che per- du- ta|bel- ta, vie|piu sa- et- * ta- *|mi.|
w: fe- * ra'og- gi com-|mo- ve- re.|L'al- ma ve- dra- *|i che qui vo- le- sti'uc-|ci de- re se stes- s'al|fin, _ dal|suo mor- ral di- ri- de-|re.|
V:3
 [GBd]2 [FA]2 [DFB]4 | [FBd]4 [_EGc]2 [FA]2 | [Ac]4 [FAc]4- | [FAc]2 [_EGc]4 [GB]2 | %4
 [^FAd]4 [FAd]4- | [FAd]2 [D=B]2 [EG-c-]4 | [EGc]2 [Ac]4 [FAd]2 | [GB]2 [Gc]2 [^FA]2 [DGB]2 | %8
 [^Fd]4 [G=B]4 :: [FBd]4 [DB]2 [EA]2 | [DFB]4 [DB]4 | [FAc]6 [Gd]2 | [EGc]6 [Ec][D=B] | %13
 [_EGc]2 [EGB]2 [Gd]2 [^FA]2 | [DG=B]8 :| %15
V:4
 G,2 F,2 B,,4 | B,,4 C,2 D,2 | A,4 F,4- | F,2 C,4 _E,2 | D,4 D,4 | D,2 G,2 C,4- | C,2 F,4 D,2 | %7
 _E,2 C,2 D,2 G,,2 | [D,A,]4 G,,4 :: B,4 G,2 A,2 | B,4 G,4 | F,6 E,D, | C,4 C,3 G, | %13
 C,D, _E,C, D,4 | G,,8 :| %15

